X:10497
T:May Day. HSJJ.141
M:4/4
L:1/8
Q:180
S:HSJ Jackson,Wyresdale,Lancs.1823
R:Reel
O:England
A:Lancashire
N:Illegible dance instructions.
H:1823
Z:vmp.Chris Partington.
K:A
agae ceAc|dBcA GBBg|agae ceAc|dBcA EAA2:|!
|:cAeA fAeA|dBcA GBBd|cedf egac|(3dcB cA EAA2:|]
